img/partners/img-3.svg

<svg width="188" height="46" viewBox="0 0 188 46" fill="none" xmlns="http://www.w3.org/2000/svg">
<g clip-path="url(#clip0_400_5308)">
<path d="M109.688 0.638672H97.1123L85.4258 16.9942L91.7771 25.8748C91.9042 26.0665 92.1582 26.0665 92.2852 25.8748L110.006 1.14978C110.069 0.958116 109.942 0.638672 109.688 0.638672Z" fill="url(#paint0_linear_400_5308)"/>
<path d="M76.788 0.639077C69.9921 0.639077 66.0542 8.36965 69.9921 13.928L78.5029 25.8113C78.6299 26.003 78.884 26.003 79.011 25.8113L97.0488 0.575195H76.788V0.639077Z" fill="#E62731"/>
<path d="M62.4341 3.44986C61.1003 2.49153 59.6395 1.72486 57.9246 1.34153C56.2732 0.894303 54.6219 0.702637 52.9705 0.702637H44.5232C44.2692 0.702637 44.0151 0.894303 44.0151 1.21375V25.5554C44.0151 25.811 44.2057 26.0665 44.5232 26.0665H52.9705C54.6219 26.0665 56.2732 25.811 57.9246 25.3637C59.5759 24.8526 61.1003 24.086 62.4341 23.0637C63.768 22.0415 64.8477 20.6999 65.6734 19.1026C66.4991 17.5054 66.9436 15.5887 66.9436 13.3526C66.9436 10.9887 66.4991 8.9443 65.6734 7.34707C64.8477 5.74985 63.768 4.40819 62.4341 3.44986ZM61.2273 17.5693C60.6557 18.7193 59.8935 19.5499 58.9408 20.2526C57.9881 20.8915 56.9719 21.4026 55.7651 21.6582C54.6219 21.9137 53.4151 22.0415 52.2719 22.0415H48.5246V4.53597H52.2719C53.4151 4.53597 54.6219 4.66375 55.7651 4.91931C56.9084 5.17487 57.9881 5.62208 58.9408 6.26097C59.8935 6.89985 60.6557 7.7943 61.2273 8.9443C61.7989 10.0943 62.1165 11.5637 62.1165 13.3526C62.1165 15.0137 61.7989 16.4832 61.2273 17.5693Z" fill="#46484D"/>
<path d="M138.078 0.638672H134.584C134.33 0.638672 134.076 0.830339 134.076 1.14978V19.6137H134.013L123.469 2.55534C122.771 1.40534 121.437 0.638672 120.103 0.638672H116.864C116.61 0.638672 116.356 0.830339 116.356 1.14978V25.4915C116.356 25.747 116.546 26.0026 116.864 26.0026H120.357C120.611 26.0026 120.865 25.8109 120.865 25.4915V6.38867H120.929L131.726 24.022C132.425 25.2359 133.759 25.9387 135.092 25.9387H138.078C138.332 25.9387 138.586 25.747 138.586 25.4276V1.0859C138.522 0.894234 138.332 0.638672 138.078 0.638672Z" fill="#46484D"/>
<path d="M109.623 4.59993L105.813 9.90268C105.622 10.1582 105.559 10.4138 105.559 10.7332V25.4277C105.559 25.6832 105.749 25.9388 106.067 25.9388H109.56C109.814 25.9388 110.068 25.7471 110.068 25.4277V4.66381C110.005 4.53603 109.75 4.47215 109.623 4.59993Z" fill="#46484D"/>
<path d="M165.643 11.5639H159.355C159.164 11.5639 158.91 11.6917 158.783 11.8194L156.624 14.6944C156.433 14.95 156.624 15.2694 156.878 15.2694H161.768V21.7222C160.371 22.2972 158.656 22.6167 156.751 22.6167C155.354 22.6167 154.083 22.3611 153.004 21.9139C152.559 21.7222 152.114 21.4667 151.733 21.2111C151.162 20.8278 150.654 20.4444 150.209 19.9333C149.447 19.1028 148.875 18.1444 148.431 16.9944C147.986 15.8444 147.795 14.6306 147.795 13.225C147.795 12.0111 147.986 10.925 148.304 9.90278C148.367 9.775 148.367 9.71111 148.431 9.58333C148.875 8.43333 149.447 7.475 150.209 6.64444C150.971 5.8139 151.86 5.175 152.94 4.66389C154.02 4.21667 155.227 3.96112 156.56 3.96112C157.894 3.96112 159.164 4.21667 160.308 4.72778C161.133 5.11112 161.895 5.49445 162.404 6.00556C162.594 6.19723 162.975 6.13333 163.102 5.94167L165.198 3.13056C165.389 2.87501 165.325 2.55556 165.071 2.42778C164.182 1.78889 163.166 1.27778 161.959 0.894451C160.308 0.31945 158.466 0 156.433 0C154.464 0 152.686 0.319444 151.035 0.958333C149.383 1.59722 147.922 2.49167 146.716 3.57778C146.081 4.15278 145.509 4.85556 145.001 5.55834C144.556 6.26112 144.175 6.96389 143.794 7.73056C143.095 9.39167 142.714 11.1806 142.714 13.225C142.714 13.6083 142.714 13.9917 142.778 14.3111C142.905 15.8444 143.222 17.3139 143.731 18.6556C144.429 20.3167 145.318 21.7222 146.589 22.8722C147.795 24.0222 149.256 24.9806 150.908 25.6194C152.622 26.2583 154.464 26.5778 156.497 26.5778C158.466 26.5778 160.244 26.3861 161.768 26.0667C163.166 25.7472 164.436 25.3639 165.579 24.7889C165.833 24.6611 165.96 24.4056 165.96 24.15V11.9472C166.151 11.7556 165.96 11.5639 165.643 11.5639Z" fill="#46484D"/>
<path d="M12.8297 14.6305C14.2905 14.1833 15.4338 13.6083 16.5135 12.4583C17.5297 11.3083 18.0378 9.77493 18.0378 7.98605C18.0378 6.64438 17.7838 5.49438 17.2757 4.59994C16.7676 3.6416 16.0689 2.93882 15.1797 2.36382C14.2905 1.78882 13.3378 1.40548 12.1946 1.14993C11.0514 0.894373 9.90811 0.766602 8.76486 0.766602H0.5081C0.254046 0.766602 0 0.958255 0 1.2777V25.6194C0 25.8749 0.190533 26.1305 0.5081 26.1305H4.00135C4.2554 26.1305 4.50947 25.9388 4.50947 25.6194V15.3972H8.38378L13.8459 25.7472C13.973 26.0027 14.227 26.1305 14.4811 26.1305H18.2919C18.6095 26.1305 18.8 25.811 18.673 25.4916L12.8297 14.6305ZM11.8135 10.861C11.3054 11.1166 10.7338 11.3083 10.0986 11.3722C9.46351 11.4999 8.82838 11.4999 8.19324 11.4999H4.50947V4.40826H8.57432C9.14595 4.40826 9.71757 4.47215 10.3527 4.53604C10.9878 4.66382 11.4959 4.79159 11.9405 5.04715C12.3851 5.30271 12.8297 5.68604 13.0838 6.13326C13.4014 6.58049 13.5284 7.15549 13.5284 7.85827C13.5284 8.62494 13.3378 9.26382 13.0203 9.71105C12.7027 10.2222 12.3216 10.6055 11.8135 10.861Z" fill="#46484D"/>
<path d="M186.856 15.4611C186.412 14.6306 185.776 13.9278 185.078 13.4167C184.379 12.8417 183.553 12.4583 182.664 12.075C181.775 11.7556 180.949 11.4361 180.187 11.1806C180.124 11.1806 179.997 11.1167 179.933 11.1167C179.806 11.0528 179.679 11.0528 179.616 10.9889C179.108 10.8611 178.663 10.6694 178.282 10.5417C177.71 10.35 177.202 10.0944 176.758 9.775C176.313 9.51944 175.995 9.13611 175.805 8.75278C175.551 8.36944 175.424 7.85833 175.424 7.28333C175.424 6.64444 175.551 6.13334 175.805 5.68612C176.059 5.2389 176.44 4.91945 176.885 4.60001C177.329 4.34445 177.774 4.15278 178.282 3.96112C178.79 3.83334 179.298 3.76945 179.87 3.76945C180.759 3.76945 181.648 3.96112 182.474 4.40834C182.791 4.53612 183.109 4.72778 183.363 4.91945C183.617 5.04723 183.871 5.04722 184.062 4.79167L185.903 2.23611C186.094 1.98056 186.03 1.66112 185.776 1.53334C185.205 1.2139 184.633 0.95834 183.998 0.702784C182.664 0.255559 181.394 0 180.124 0C178.98 0 177.837 0.127785 176.758 0.44723C175.678 0.766673 174.662 1.21389 173.836 1.78889C172.947 2.42778 172.248 3.19445 171.74 4.0889C171.232 5.04723 170.914 6.13334 170.914 7.41111C170.914 8.625 171.105 9.58333 171.486 10.4139C171.867 11.2444 172.375 11.8833 172.947 12.4583C173.582 13.0333 174.217 13.4167 174.979 13.8C175.678 14.1194 176.376 14.375 177.075 14.5667C177.139 14.5667 177.202 14.6306 177.266 14.6306C177.266 14.6306 177.266 14.6306 177.329 14.6306C178.091 14.8861 178.853 15.1417 179.552 15.3972C180.251 15.6528 180.886 15.9083 181.394 16.2278C181.902 16.5472 182.347 16.9306 182.664 17.3778C182.982 17.825 183.109 18.4 183.109 19.0389C183.109 19.7417 182.982 20.3167 182.728 20.7639C182.474 21.2111 182.093 21.5944 181.648 21.9139C181.203 22.2333 180.695 22.425 180.187 22.5528C179.616 22.6806 179.108 22.7444 178.599 22.7444C177.583 22.7444 176.567 22.4889 175.551 21.9778C174.725 21.5944 173.899 21.0194 173.455 20.6361C173.264 20.4444 172.883 20.5083 172.756 20.7L170.851 23.3194C170.724 23.5111 170.724 23.8306 170.914 24.0222C171.422 24.4694 172.502 25.2361 173.709 25.6833C175.297 26.2583 176.885 26.5778 178.536 26.5778C179.743 26.5778 180.949 26.3861 182.029 26.0667C183.172 25.7472 184.125 25.2361 184.951 24.5333C185.776 23.8944 186.475 23 186.92 22.0417C187.428 21.0194 187.682 19.8694 187.682 18.4639C187.555 17.3139 187.301 16.2917 186.856 15.4611Z" fill="#46484D"/>
<path d="M39.1875 21.978H26.8659V14.8224H37.9173C38.1713 14.8224 38.4254 14.6308 38.4254 14.3113V11.5002C38.4254 11.2446 38.2348 10.9891 37.9173 10.9891H26.8659V4.53631H30.3591H39.1875C39.4416 4.53631 39.6956 4.34463 39.6956 4.02519V1.08631C39.6956 0.83075 39.5051 0.575195 39.1875 0.575195H27.4375H26.6119C24.2619 0.575195 22.3564 2.49186 22.3564 4.85575V21.6585C22.3564 24.0224 24.2619 25.9391 26.6119 25.9391H39.1875C39.4416 25.9391 39.6956 25.7474 39.6956 25.428V22.4252C39.6956 22.2335 39.4416 21.978 39.1875 21.978Z" fill="#46484D"/>
<path d="M71.3248 36.9277C70.9437 36.9277 70.6262 36.9916 70.2451 37.1194C69.864 37.2472 69.61 37.375 69.4194 37.5027C69.2289 37.6305 68.9748 37.8222 68.7843 37.95C68.5937 38.1416 68.4667 38.2694 68.4032 38.3333C68.3397 38.3972 68.2762 38.4611 68.2762 38.525L69.0383 39.2916L69.2924 38.9722C69.4829 38.7805 69.737 38.5888 70.1181 38.3333C70.4992 38.1416 70.8802 38.0138 71.3248 38.0138C71.8964 38.0138 72.4046 38.2055 72.7856 38.5888C73.1667 38.9722 73.3573 39.4833 73.3573 40.0583L70.1816 40.5694C69.4194 40.6972 68.7843 40.9527 68.4032 41.4C68.0221 41.8472 67.7681 42.3583 67.7681 43.0611C67.7681 43.7 68.0221 44.275 68.5937 44.7222C69.1654 45.2333 69.864 45.425 70.6897 45.425C71.0073 45.425 71.3248 45.3611 71.6424 45.2972C71.96 45.2333 72.214 45.1055 72.4046 44.9777C72.5951 44.85 72.7856 44.7222 72.9127 44.5944C73.1032 44.4666 73.1667 44.3388 73.2302 44.275C73.2937 44.2111 73.2937 44.1472 73.3573 44.1472V45.2333H74.564V39.9944C74.564 39.1 74.2464 38.3333 73.6113 37.7583C73.0397 37.2472 72.2775 36.9277 71.3248 36.9277ZM73.4208 41.6555C73.4208 42.4861 73.1667 43.125 72.6586 43.6361C72.1505 44.1472 71.5154 44.4027 70.7532 44.4027C70.2451 44.4027 69.8005 44.275 69.4829 44.0194C69.1654 43.7638 69.0383 43.4444 69.0383 43.125C69.0383 42.3583 69.5464 41.8472 70.5627 41.6555L73.3573 41.1444V41.6555H73.4208Z" fill="#46484D"/>
<path d="M78.5022 37.1191H77.2954V45.3608H78.5022V37.1191Z" fill="#46484D"/>
<path d="M77.9311 33.5415C77.7406 33.5415 77.55 33.6054 77.3595 33.7332C77.2325 33.8609 77.1689 34.0526 77.1689 34.3082C77.1689 34.4998 77.2325 34.6915 77.3595 34.8832C77.4865 35.0109 77.6771 35.0748 77.9311 35.0748C78.1216 35.0748 78.3122 35.0109 78.5027 34.8832C78.6298 34.7554 78.6933 34.5637 78.6933 34.3082C78.6933 34.1165 78.6298 33.9248 78.5027 33.7332C78.3122 33.6054 78.1216 33.5415 77.9311 33.5415Z" fill="#46484D"/>
<path d="M84.154 37.0555C83.8365 37.1194 83.5824 37.2472 83.3919 37.375C83.2013 37.5027 83.0108 37.6305 82.8838 37.7583C82.6932 37.8861 82.6297 38.0138 82.5662 38.0777C82.5027 38.1416 82.5027 38.2055 82.4392 38.2055V37.1194H81.2324V45.3611H82.4392V40.825C82.4392 40.0583 82.6932 39.4194 83.2013 38.9083C83.7094 38.3972 84.2811 38.1416 85.0432 38.1416H85.5513V36.9277H85.2338C84.8527 36.9277 84.4716 36.9277 84.154 37.0555Z" fill="#46484D"/>
<path d="M88.4114 33.2856H87.2046V45.2968H88.4114V33.2856Z" fill="#46484D"/>
<path d="M91.8393 33.5415C91.6488 33.5415 91.4582 33.6054 91.2677 33.7332C91.1407 33.8609 91.0771 34.0526 91.0771 34.3082C91.0771 34.4998 91.1407 34.6915 91.2677 34.8832C91.3947 35.0109 91.5853 35.0748 91.8393 35.0748C92.0299 35.0748 92.2204 35.0109 92.4109 34.8832C92.538 34.7554 92.6015 34.5637 92.6015 34.3082C92.6015 34.1165 92.538 33.9248 92.4109 33.7332C92.2204 33.6054 92.0299 33.5415 91.8393 33.5415Z" fill="#46484D"/>
<path d="M92.4133 37.1191H91.2065V45.3608H92.4133V37.1191Z" fill="#46484D"/>
<path d="M99.0184 36.9277C98.7008 36.9277 98.3832 36.9916 98.0657 37.0555C97.7481 37.1833 97.494 37.2472 97.3035 37.375C97.113 37.5027 96.9224 37.6305 96.7954 37.8222C96.6049 38.0138 96.5413 38.0777 96.4778 38.1416C96.4143 38.2055 96.4143 38.2694 96.3508 38.2694V37.0555H95.144V45.2972H96.3508V40.7611C96.3508 39.9305 96.6049 39.2916 97.113 38.7805C97.6211 38.2694 98.1927 38.0138 98.9549 38.0138C99.59 38.0138 100.162 38.2055 100.543 38.6527C100.987 39.1 101.178 39.675 101.178 40.3777V45.2972H102.385V40.3777C102.385 39.2916 102.067 38.4611 101.432 37.8222C100.797 37.2472 99.9711 36.9277 99.0184 36.9277Z" fill="#46484D"/>
<path d="M108.481 36.9277C107.401 36.9277 106.448 37.375 105.686 38.2055C104.861 39.0361 104.479 40.0583 104.479 41.2722C104.479 42.4861 104.861 43.5083 105.686 44.3388C106.512 45.1694 107.465 45.6166 108.544 45.6166C108.925 45.6166 109.37 45.5527 109.751 45.425C110.132 45.2972 110.45 45.1694 110.704 45.0416C110.958 44.9138 111.212 44.7222 111.402 44.5305C111.593 44.3388 111.784 44.2111 111.847 44.1472C111.911 44.0833 111.974 44.0194 111.974 43.9555L111.212 43.1888L110.894 43.5083C110.704 43.7638 110.386 43.9555 109.942 44.2111C109.497 44.4666 109.052 44.5305 108.544 44.5305C107.782 44.5305 107.147 44.275 106.575 43.7C106.004 43.1888 105.686 42.4861 105.686 41.7833H112.355L112.419 41.1444C112.419 39.9305 112.038 38.9722 111.275 38.2055C110.513 37.3111 109.624 36.9277 108.481 36.9277ZM105.686 40.6333C105.75 39.9305 106.067 39.3555 106.639 38.8444C107.147 38.3333 107.782 38.0777 108.544 38.0777C109.307 38.0777 109.878 38.3333 110.386 38.7805C110.894 39.2916 111.212 39.8666 111.275 40.6333H105.686Z" fill="#46484D"/>
<path d="M119.278 41.6556C118.96 41.3361 118.579 41.0806 118.198 40.8889C117.753 40.7611 117.309 40.5695 116.928 40.5056C116.483 40.3778 116.102 40.25 115.848 39.9945C115.53 39.8028 115.403 39.5473 115.403 39.2278C115.403 38.9084 115.53 38.6528 115.848 38.3973C116.102 38.1417 116.483 38.0139 116.928 38.0139C117.309 38.0139 117.626 38.0778 117.944 38.2695C118.261 38.3973 118.452 38.525 118.515 38.6528C118.579 38.7167 118.642 38.8445 118.706 38.9084L119.595 38.0778L119.468 37.95C119.405 37.8861 119.278 37.8223 119.151 37.6945C119.024 37.5667 118.833 37.4389 118.642 37.375C118.452 37.2473 118.198 37.1834 117.88 37.1195C117.563 37.0556 117.245 36.9917 116.928 36.9917C116.165 36.9917 115.467 37.2473 114.959 37.6945C114.451 38.1417 114.197 38.7167 114.197 39.2917C114.197 39.8028 114.324 40.25 114.641 40.5695C114.959 40.8889 115.34 41.1445 115.784 41.2723C116.229 41.4 116.674 41.5917 117.055 41.7195C117.499 41.8473 117.88 42.0389 118.134 42.2306C118.452 42.4223 118.579 42.7417 118.579 43.0611C118.579 43.4445 118.452 43.7639 118.134 44.0195C117.817 44.275 117.372 44.4028 116.801 44.4028C116.547 44.4028 116.292 44.3389 116.038 44.275C115.784 44.2111 115.594 44.0834 115.467 43.9556C115.34 43.8278 115.149 43.7 115.022 43.5723C114.895 43.4445 114.768 43.3167 114.768 43.3167C114.705 43.2528 114.705 43.1889 114.705 43.1889L113.815 44.0195L113.942 44.1473C114.006 44.275 114.133 44.3389 114.324 44.5306C114.514 44.6584 114.705 44.7861 114.895 44.9778C115.149 45.1056 115.403 45.2334 115.721 45.3611C116.038 45.4889 116.419 45.4889 116.801 45.4889C117.69 45.4889 118.452 45.2334 118.96 44.7861C119.468 44.3389 119.786 43.7 119.786 42.9973C119.722 42.4861 119.595 42.0389 119.278 41.6556Z" fill="#46484D"/>
</g>
<defs>
<linearGradient id="paint0_linear_400_5308" x1="85.4061" y1="13.3204" x2="110.011" y2="13.3204" gradientUnits="userSpaceOnUse">
<stop stop-color="#B02224"/>
<stop offset="0.0722053" stop-color="#B72226"/>
<stop offset="0.3089" stop-color="#CC252B"/>
<stop offset="0.5444" stop-color="#DA262F"/>
<stop offset="0.7763" stop-color="#E32631"/>
<stop offset="1" stop-color="#E62731"/>
</linearGradient>
<clipPath id="clip0_400_5308">
<rect width="188" height="46" fill="white"/>
</clipPath>
</defs>
</svg>

<svg width="188" height="46" fill="none" xmlns="http://www.w3.org/2000/svg"><g clip-path="url(#clip0_400_5308)"><path d="M109.688.639H97.112L85.426 16.994l6.351 8.88a.296.296 0 00.508 0L110.006 1.15c.063-.192-.064-.511-.318-.511z" fill="url(#paint0_linear_400_5308)"/><path d="M76.788.64c-6.796 0-10.734 7.73-6.796 13.288l8.51 11.883a.296.296 0 00.509 0L97.049.575H76.788V.64z" fill="#E62731"/><path d="M62.434 3.45c-1.334-.958-2.794-1.725-4.51-2.108a18.833 18.833 0 00-4.953-.64h-8.448a.502.502 0 00-.508.512v24.341c0 .256.19.512.508.512h8.447c1.652 0 3.303-.256 4.955-.703 1.65-.511 3.175-1.278 4.51-2.3 1.333-1.023 2.413-2.364 3.238-3.961.826-1.598 1.27-3.514 1.27-5.75 0-2.364-.444-4.409-1.27-6.006-.825-1.597-1.905-2.939-3.239-3.897zm-1.207 14.12c-.571 1.15-1.333 1.98-2.286 2.683-.953.639-1.97 1.15-3.176 1.405-1.143.256-2.35.383-3.493.383h-3.747V4.537h3.747c1.143 0 2.35.128 3.493.383a9.352 9.352 0 013.176 1.342c.953.639 1.715 1.533 2.286 2.683.572 1.15.89 2.62.89 4.409 0 1.66-.318 3.13-.89 4.216zM138.078.639h-3.494a.502.502 0 00-.508.51v18.465h-.063L123.469 2.555c-.698-1.15-2.032-1.916-3.366-1.916h-3.239a.502.502 0 00-.508.51v24.342c0 .256.19.512.508.512h3.493a.502.502 0 00.508-.512V6.39h.064l10.797 17.633c.699 1.214 2.033 1.917 3.366 1.917h2.986a.502.502 0 00.508-.511V1.086c-.064-.192-.254-.447-.508-.447zM109.623 4.6l-3.81 5.303c-.191.255-.254.51-.254.83v14.695c0 .255.19.51.508.51h3.493a.502.502 0 00.508-.51V4.664c-.063-.128-.318-.192-.445-.064zm56.02 6.964h-6.288c-.191 0-.445.128-.572.255l-2.159 2.875c-.191.256 0 .575.254.575h4.89v6.453c-1.397.575-3.112.895-5.017.895-1.397 0-2.668-.256-3.747-.703a8.107 8.107 0 01-1.271-.703c-.571-.383-1.079-.767-1.524-1.278-.762-.83-1.334-1.789-1.778-2.939-.445-1.15-.636-2.363-.636-3.769 0-1.214.191-2.3.509-3.322.063-.128.063-.192.127-.32.444-1.15 1.016-2.108 1.778-2.939.762-.83 1.651-1.469 2.731-1.98a9.384 9.384 0 013.62-.703c1.334 0 2.604.256 3.748.767.825.383 1.587.766 2.096 1.278.19.191.571.127.698-.064l2.096-2.811c.191-.256.127-.575-.127-.703-.889-.64-1.905-1.15-3.112-1.534C160.308.32 158.466 0 156.433 0c-1.969 0-3.747.32-5.398.958-1.652.64-3.113 1.534-4.319 2.62-.635.575-1.207 1.278-1.715 1.98a23.682 23.682 0 00-1.207 2.173c-.699 1.66-1.08 3.45-1.08 5.494 0 .383 0 .767.064 1.086.127 1.533.444 3.003.953 4.345.698 1.66 1.587 3.066 2.858 4.216a13.144 13.144 0 004.319 2.747c1.714.64 3.556.959 5.589.959 1.969 0 3.747-.192 5.271-.511 1.398-.32 2.668-.703 3.811-1.278a.703.703 0 00.381-.639V11.947c.191-.191 0-.383-.317-.383zM12.83 14.63c1.46-.447 2.604-1.022 3.684-2.172 1.016-1.15 1.524-2.683 1.524-4.472 0-1.342-.254-2.492-.762-3.386-.508-.958-1.207-1.661-2.096-2.236-.89-.575-1.842-.959-2.985-1.214a15.678 15.678 0 00-3.43-.383H.508a.502.502 0 00-.508.51V25.62c0 .256.19.512.508.512h3.493a.502.502 0 00.508-.512V15.397h3.875l5.462 10.35a.698.698 0 00.635.384h3.81c.319 0 .509-.32.382-.64l-5.843-10.86zm-1.017-3.769a4.889 4.889 0 01-1.714.511c-.635.128-1.27.128-1.906.128H4.51V4.408h4.065c.572 0 1.144.064 1.779.128.635.128 1.143.256 1.588.511.444.256.889.639 1.143 1.086.317.447.444 1.022.444 1.725 0 .767-.19 1.406-.508 1.853-.317.511-.698.894-1.207 1.15zm175.043 4.6a6.17 6.17 0 00-1.778-2.044c-.699-.575-1.525-.959-2.414-1.342-.889-.32-1.715-.639-2.477-.894-.063 0-.19-.064-.254-.064-.127-.064-.254-.064-.317-.128-.508-.128-.953-.32-1.334-.447a5.682 5.682 0 01-1.524-.767 2.426 2.426 0 01-.953-1.022c-.254-.384-.381-.895-.381-1.47 0-.639.127-1.15.381-1.597.254-.447.635-.767 1.08-1.086a9.297 9.297 0 011.397-.639 6.361 6.361 0 011.588-.192c.889 0 1.778.192 2.604.64.317.127.635.319.889.51.254.128.508.128.699-.127l1.841-2.556c.191-.255.127-.575-.127-.703a15.122 15.122 0 00-1.778-.83C182.664.256 181.394 0 180.124 0c-1.144 0-2.287.128-3.366.447-1.08.32-2.096.767-2.922 1.342a7.197 7.197 0 00-2.096 2.3 6.948 6.948 0 00-.826 3.322c0 1.214.191 2.172.572 3.003.381.83.889 1.47 1.461 2.044.635.575 1.27.959 2.032 1.342.699.32 1.397.575 2.096.767.064 0 .127.064.191.064h.063c.762.255 1.524.51 2.223.766.699.256 1.334.511 1.842.83.508.32.953.704 1.27 1.15.318.448.445 1.023.445 1.662 0 .703-.127 1.278-.381 1.725-.254.447-.635.83-1.08 1.15-.445.32-.953.511-1.461.639a7.153 7.153 0 01-1.588.191c-1.016 0-2.032-.255-3.048-.766a9.973 9.973 0 01-2.096-1.342c-.191-.192-.572-.128-.699.064l-1.905 2.62c-.127.191-.127.51.063.702.508.447 1.588 1.214 2.795 1.661 1.588.575 3.176.895 4.827.895a12.48 12.48 0 003.493-.511c1.143-.32 2.096-.83 2.922-1.534a6.868 6.868 0 001.969-2.491c.508-1.023.762-2.173.762-3.578-.127-1.15-.381-2.172-.826-3.003zM39.188 21.978H26.866v-7.156h11.051a.502.502 0 00.508-.51V11.5a.503.503 0 00-.508-.51H26.866V4.535h12.321a.502.502 0 00.509-.51v-2.94a.502.502 0 00-.508-.51H26.611c-2.35 0-4.256 1.916-4.256 4.28v16.802c0 2.364 1.906 4.281 4.256 4.281h12.576a.502.502 0 00.508-.511v-3.003c0-.192-.254-.447-.508-.447zm32.137 14.95c-.381 0-.699.064-1.08.191a3.393 3.393 0 00-.826.384c-.19.127-.444.32-.635.447l-.38.383c-.064.064-.128.128-.128.192l.762.767.254-.32c.19-.191.445-.383.826-.639.381-.191.762-.32 1.207-.32.571 0 1.08.193 1.46.576.382.383.572.894.572 1.47l-3.175.51c-.763.128-1.398.384-1.779.831-.38.447-.635.958-.635 1.661 0 .639.254 1.214.826 1.661.571.511 1.27.703 2.096.703.317 0 .635-.064.952-.128.318-.064.572-.191.763-.32.19-.127.38-.255.508-.383.19-.127.254-.255.317-.319.064-.064.064-.128.127-.128v1.086h1.207v-5.239c0-.894-.318-1.66-.953-2.236-.571-.51-1.334-.83-2.286-.83zm2.096 4.728c0 .83-.254 1.469-.762 1.98-.509.511-1.144.767-1.906.767-.508 0-.953-.128-1.27-.384a1.118 1.118 0 01-.445-.894c0-.767.508-1.278 1.525-1.47l2.794-.51v.51h.064zm5.081-4.536h-1.207v8.24h1.207v-8.24zm-.571-3.579c-.19 0-.381.064-.572.192-.126.128-.19.32-.19.575 0 .192.064.383.19.575.128.128.318.192.572.192.19 0 .381-.064.572-.192.127-.128.19-.32.19-.575 0-.191-.063-.383-.19-.575a1.02 1.02 0 00-.572-.191zm6.223 3.515a2.113 2.113 0 00-.762.319c-.19.128-.381.255-.508.383-.19.128-.254.256-.318.32-.063.064-.063.127-.127.127V37.12h-1.207v8.242h1.207v-4.536c0-.767.254-1.406.762-1.917.508-.51 1.08-.766 1.842-.766h.508v-1.214h-.317c-.381 0-.762 0-1.08.128zm4.257-3.77h-1.206v12.01h1.206v-12.01zm3.429.255c-.191 0-.382.064-.572.192-.127.128-.19.32-.19.575 0 .192.063.383.19.575.127.128.317.192.571.192.19 0 .381-.064.572-.192.127-.128.19-.32.19-.575 0-.191-.063-.383-.19-.575a1.02 1.02 0 00-.572-.191zm.573 3.579h-1.206v8.24h1.206v-8.24zm6.605-.192c-.317 0-.635.064-.952.128-.318.127-.572.191-.763.319-.19.128-.38.255-.508.447l-.317.32c-.064.063-.064.127-.127.127v-1.213h-1.207v8.241h1.207v-4.536c0-.83.254-1.47.762-1.98.508-.512 1.08-.767 1.842-.767.635 0 1.207.191 1.588.639.444.447.635 1.022.635 1.725v4.92h1.207v-4.92c0-1.086-.318-1.917-.953-2.556-.635-.575-1.46-.894-2.414-.894zm9.463 0c-1.08 0-2.033.447-2.795 1.278-.825.83-1.207 1.852-1.207 3.066 0 1.214.382 2.236 1.207 3.067.826.83 1.779 1.278 2.858 1.278a3.97 3.97 0 001.207-.192c.381-.128.699-.256.953-.383a2.83 2.83 0 00.698-.511c.191-.192.382-.32.445-.384.064-.064.127-.128.127-.191l-.762-.767-.318.32c-.19.255-.508.447-.952.702-.445.256-.89.32-1.398.32-.762 0-1.397-.256-1.969-.831-.571-.511-.889-1.214-.889-1.917h6.669l.064-.639c0-1.213-.381-2.172-1.144-2.938-.762-.895-1.651-1.278-2.794-1.278zm-2.795 3.705c.064-.703.381-1.278.953-1.789.508-.51 1.143-.766 1.905-.766.763 0 1.334.255 1.842.703.508.51.826 1.086.889 1.852h-5.589zm13.592 1.023a4.182 4.182 0 00-1.08-.767c-.445-.128-.889-.32-1.27-.383-.445-.128-.826-.256-1.08-.511-.318-.192-.445-.448-.445-.767 0-.32.127-.575.445-.83.254-.256.635-.384 1.08-.384.381 0 .698.064 1.016.255.317.128.508.256.571.384.064.064.127.191.191.255l.889-.83-.127-.128c-.063-.064-.19-.128-.317-.256a1.381 1.381 0 00-.509-.319c-.19-.128-.444-.192-.762-.255-.317-.064-.635-.128-.952-.128-.763 0-1.461.255-1.969.703-.508.447-.762 1.022-.762 1.597 0 .51.127.958.444 1.277.318.32.699.575 1.143.703.445.128.89.32 1.271.447.444.128.825.32 1.079.512.318.191.445.51.445.83 0 .383-.127.703-.445.959-.317.255-.762.383-1.333.383-.254 0-.509-.064-.763-.128a1.224 1.224 0 01-.571-.32c-.127-.127-.318-.255-.445-.383l-.254-.255c-.063-.064-.063-.128-.063-.128l-.89.83.127.128c.064.128.191.192.382.384.19.127.381.255.571.447.254.128.508.255.826.383.317.128.698.128 1.08.128.889 0 1.651-.256 2.159-.703a2.383 2.383 0 00.826-1.789c-.064-.51-.191-.958-.508-1.341z" fill="#46484D"/></g><defs><linearGradient id="paint0_linear_400_5308" x1="85.406" y1="13.32" x2="110.011" y2="13.32" gradientUnits="userSpaceOnUse"><stop stop-color="#B02224"/><stop offset=".072" stop-color="#B72226"/><stop offset=".309" stop-color="#CC252B"/><stop offset=".544" stop-color="#DA262F"/><stop offset=".776" stop-color="#E32631"/><stop offset="1" stop-color="#E62731"/></linearGradient><clipPath id="clip0_400_5308"><path fill="#fff" d="M0 0h188v46H0z"/></clipPath></defs></svg>
